components/Common/Svg/svgs/support.svg

<svg width="40" height="40" viewBox="0 0 40 40" fill="none" xmlns="http://www.w3.org/2000/svg">
<path fill-rule="evenodd" clip-rule="evenodd" d="M9.74 9.39474C8.31164 8.04138 2.6 7.60302 0.883359 7.50138C0.646719 7.48974 0.428359 7.56802 0.261719 7.72638C0.095 7.88302 0 8.10302 0 8.33302V23.333C0 23.793 0.373359 24.1664 0.833359 24.1664H5.83336C6.19336 24.1664 6.51336 23.9347 6.625 23.5914L6.62512 23.591C6.64223 23.5385 6.71214 23.3239 6.82087 22.9818C6.95754 23.1229 7.10442 23.2762 7.25716 23.4357L7.43822 23.6246L7.4523 23.6393C8.19127 24.4113 8.95312 25.2073 9.46658 25.6379C12.5699 28.2363 16.2999 31.0413 17.0432 31.5296C17.6566 31.9329 18.9782 32.4996 20.0016 32.4996C20.8232 32.4996 21.4549 32.3112 21.8932 31.9429C22.4799 32.1713 23.1466 32.1729 23.7882 31.9229C24.5466 31.6296 25.1699 31.0379 25.5232 30.3213C26.1799 30.4613 26.9316 30.3629 27.6149 30.0196C28.2832 29.683 28.7665 29.168 29.0065 28.5663C29.6699 28.6013 30.3531 28.3663 30.9181 27.8813C31.6807 27.2291 32.0028 26.2879 31.822 25.3513L33.1389 24.4667C33.2319 24.7666 33.3077 25.0216 33.3628 25.2214C33.4628 25.5831 33.7912 25.8331 34.1662 25.8331H39.1662C39.6262 25.8331 39.9995 25.4597 39.9995 24.9997V9.99972C39.9995 9.53808 39.6262 9.16644 39.1662 9.16644C32.6228 9.16644 28.9928 10.8414 28.8412 10.9114C28.6246 11.0131 28.4628 11.2014 28.3962 11.4298C28.3379 11.6294 28.356 11.8418 28.445 12.0278C27.1857 11.5505 25.4294 10.8567 23.6749 10.0713C20.6677 8.72699 18.7286 9.1371 16.5794 10.8331H9.91138C9.9469 10.5668 9.97562 10.3122 9.99664 10.0714C10.0184 9.81802 9.925 9.56802 9.74 9.39474ZM29.4489 14.1761C28.5761 13.8636 25.7824 12.8419 22.9933 11.5946C20.0433 10.2763 18.6467 10.9546 15.9383 13.6646C14.8 14.803 13.9217 16.5064 14.0967 17.238C14.1217 17.3446 14.1683 17.4564 14.4283 17.543C15.2433 17.8163 16.4633 17.9663 17.6417 16.2046C17.78 15.998 18.0033 15.8646 18.2517 15.8396C18.8115 15.7832 18.9525 15.7201 19.3659 15.5348L19.37 15.533L19.407 15.5165L19.407 15.5165C19.6746 15.3973 20.0151 15.2457 20.5517 15.0514C20.8533 14.943 21.1949 15.0164 21.4233 15.2464C22.3349 16.158 23.7649 17.3146 25.2783 18.538L25.2799 18.5393L25.2799 18.5393C27.5732 20.3945 29.934 22.3044 31.0835 23.8392L32.6049 22.8173C31.7491 20.2509 30.4269 16.5534 29.4489 14.1761ZM8.64322 22.4712C8.1459 21.9519 7.68371 21.4723 7.37794 21.1853C8.07427 18.8872 9.08022 15.3664 9.63403 12.4998H14.7465C13.608 13.645 12.075 15.9387 12.4732 17.623C12.6449 18.343 13.1516 18.8764 13.9049 19.1246C15.7932 19.748 17.5165 19.1513 18.7999 17.448C19.3299 17.3664 19.6182 17.2464 20.0515 17.0514C20.2081 16.9814 20.3915 16.8997 20.6349 16.8014C21.5882 17.6964 22.8749 18.738 24.2299 19.833L24.2346 19.8368C26.6834 21.8175 29.4586 24.0622 30.0832 25.3614C30.3916 26.003 30.0599 26.4214 29.8349 26.613C29.5168 26.8861 29.0858 26.9796 28.8357 26.8323C28.2093 26.3283 25.5723 23.6285 23.9364 21.9232C23.618 21.5898 23.0898 21.5782 22.758 21.8982C22.4247 22.2165 22.4147 22.7448 22.733 23.0765C23.1198 23.4798 26.2375 26.7296 27.4858 27.8673C27.3889 28.2277 27.0383 28.4429 26.8682 28.528C26.3457 28.7925 25.8008 28.7531 25.583 28.5696C25.5639 28.5511 25.5438 28.5334 25.5227 28.5165C24.5243 27.7181 22.0161 25.0531 21.4493 24.4364C21.136 24.0964 20.611 24.0764 20.271 24.3864C19.9326 24.6981 19.9093 25.2265 20.221 25.5648L20.2389 25.584C20.4651 25.8271 22.7561 28.2896 24.078 29.4737C23.9209 29.8689 23.5902 30.2103 23.1881 30.3663C22.9331 30.4629 22.5631 30.5213 22.2315 30.2179C22.2186 30.2063 22.2055 30.1951 22.192 30.1844C20.9993 29.1754 18.5827 26.6031 18.1093 26.0965C17.7943 25.7598 17.266 25.7415 16.931 26.0565C16.5943 26.3715 16.5776 26.8981 16.891 27.2348C17.4546 27.8383 19.1363 29.6223 20.3975 30.8105C20.2914 30.8245 20.1613 30.8329 20.0015 30.8329C19.4465 30.8329 18.4481 30.4579 17.9599 30.1346C17.3749 29.7496 13.7065 27.0129 10.5382 24.3596C10.0932 23.9846 9.32322 23.1812 8.64322 22.4712ZM5.225 22.4998H1.66664V9.22638C4.345 9.43802 7.235 9.89802 8.285 10.408C7.84336 14.058 5.845 20.543 5.225 22.4998ZM34.7895 24.1664H38.3329V10.8432C34.3679 10.9364 31.6362 11.6782 30.3645 12.1098C31.6662 14.8831 33.9995 21.5931 34.7895 24.1664Z" fill="#161616"/>
</svg>

<svg width="40" height="40" viewBox="0 0 40 40" fill="none" xmlns="http://www.w3.org/2000/svg"><path fill-rule="evenodd" clip-rule="evenodd" d="M9.74 9.395C8.312 8.04 2.6 7.603.883 7.5A.833.833 0 0 0 0 8.333v15c0 .46.373.833.833.833h5c.36 0 .68-.231.792-.575.017-.053.087-.267.196-.61l.436.455.181.189.014.014c.74.772 1.501 1.568 2.015 1.999 3.103 2.598 6.833 5.403 7.576 5.892.614.403 1.935.97 2.959.97.821 0 1.453-.189 1.891-.557.587.228 1.254.23 1.895-.02a3.282 3.282 0 0 0 1.735-1.602c.657.14 1.409.042 2.092-.301.668-.337 1.152-.852 1.392-1.454.663.035 1.346-.2 1.911-.685.763-.652 1.085-1.593.904-2.53l1.317-.884c.093.3.169.555.224.754.1.362.428.612.803.612h5c.46 0 .834-.373.834-.833V10a.833.833 0 0 0-.834-.834c-6.543 0-10.173 1.675-10.325 1.745a.83.83 0 0 0-.396 1.117 90.598 90.598 0 0 1-4.77-1.957c-3.007-1.344-4.946-.934-7.096.762H9.911c.036-.266.065-.52.086-.762a.829.829 0 0 0-.257-.676Zm19.709 4.781a97.602 97.602 0 0 1-6.456-2.581c-2.95-1.319-4.346-.64-7.055 2.07-1.138 1.138-2.016 2.841-1.841 3.573.025.107.071.218.331.305.815.273 2.035.423 3.214-1.338a.833.833 0 0 1 .61-.365c.56-.057.7-.12 1.114-.305l.004-.002.037-.016c.268-.12.608-.271 1.145-.466a.833.833 0 0 1 .871.195c.912.912 2.342 2.069 3.855 3.292l.002.001c2.293 1.855 4.654 3.765 5.803 5.3l1.522-1.022c-.856-2.566-2.178-6.264-3.156-8.64ZM8.643 22.471c-.497-.52-.96-.999-1.265-1.286.696-2.298 1.702-5.819 2.256-8.685h5.112c-1.138 1.145-2.671 3.439-2.273 5.123.172.72.679 1.253 1.432 1.502 1.888.623 3.612.026 4.895-1.677.53-.082.818-.202 1.252-.397.156-.07.34-.151.583-.25.953.895 2.24 1.937 3.595 3.032l.005.004c2.448 1.98 5.224 4.225 5.848 5.524.309.642-.023 1.06-.248 1.252-.318.273-.75.367-1 .22-.626-.505-3.263-3.204-4.899-4.91a.833.833 0 1 0-1.203 1.153c.387.404 3.505 3.654 4.753 4.791-.097.36-.448.576-.618.661-.522.265-1.067.225-1.285.042a.854.854 0 0 0-.06-.053c-.999-.799-3.507-3.464-4.074-4.08a.835.835 0 0 0-1.228 1.128l.018.019c.226.243 2.517 2.706 3.839 3.89a1.61 1.61 0 0 1-.89.892c-.255.097-.625.155-.956-.148a.832.832 0 0 0-.04-.034c-1.193-1.009-3.61-3.58-4.083-4.088a.833.833 0 1 0-1.218 1.139c.564.603 2.245 2.387 3.507 3.576a3.055 3.055 0 0 1-.396.022c-.555 0-1.554-.375-2.042-.698-.585-.385-4.254-3.122-7.422-5.775-.445-.375-1.215-1.179-1.895-1.889Zm-3.418.029H1.667V9.226c2.678.212 5.568.672 6.618 1.182-.442 3.65-2.44 10.135-3.06 12.092Zm29.564 1.666h3.544V10.843c-3.965.093-6.697.835-7.968 1.267 1.301 2.773 3.634 9.483 4.424 12.056Z" fill="#161616"/></svg>
